icons/hexagon-list.svg

<svg xmlns="http://www.w3.org/2000/svg" width="24" height="24" viewBox="0 0 24 24">
  <path d="M16.3173342,1 C17.0224657,1 17.6754933,1.37131518 18.0360686,1.97728201 L23.3914405,10.977282 C23.7664613,11.6075253 23.7664613,12.3924747 23.3914405,13.022718 L18.0360686,22.022718 C17.6754933,22.6286848 17.0224657,23 16.3173342,23 L7.68266576,23 C6.97753431,23 6.32450667,22.6286848 5.96393136,22.022718 L0.608559463,13.022718 C0.233538656,12.3924747 0.233538656,11.6075253 0.608559463,10.977282 L5.96393136,1.97728201 C6.32450667,1.37131518 6.97753431,1 7.68266576,1 L16.3173342,1 Z M17,13 L7,13 L6.88337887,13.0067277 C6.38604019,13.0644928 6,13.4871642 6,14 C6,14.5522847 6.44771525,15 7,15 L7,15 L17,15 L17.1166211,14.9932723 C17.6139598,14.9355072 18,14.5128358 18,14 C18,13.4477153 17.5522847,13 17,13 L17,13 Z M17,9 L7,9 L6.88337887,9.00672773 C6.38604019,9.06449284 6,9.48716416 6,10 C6,10.5522847 6.44771525,11 7,11 L7,11 L17,11 L17.1166211,10.9932723 C17.6139598,10.9355072 18,10.5128358 18,10 C18,9.44771525 17.5522847,9 17,9 L17,9 Z"/>
</svg>

<svg xmlns="http://www.w3.org/2000/svg" viewBox="0 0 24 24">
  <path d="M16.32 1a2 2 0 0 1 1.72.98l5.35 9a2 2 0 0 1 0 2.04l-5.35 9a2 2 0 0 1-1.72.98H7.68a2 2 0 0 1-1.72-.98l-5.35-9a2 2 0 0 1 0-2.04l5.35-9A2 2 0 0 1 7.68 1h8.64zM17 13H6.88A1 1 0 0 0 7 15h10.12a1 1 0 0 0-.12-2zm0-4H6.88A1 1 0 0 0 7 11h10.12A1 1 0 0 0 17 9z"/>
</svg>
